X:1
T: Trip to Town-o
N:
C:
S:aka The Fox Hunters' Jig
A:
O:
R:
M:9/8
K:G
I:speed 170
%W: A1
% voice 1 (1 lines, 30 notes)
K:G
M:9/8
L:1/16
d c |B4 B2 B2 G2 B2 c4 A2 B4 B2 B2 G2 B2 A4 G2 B4 B2 B2 G2 B2 c4 A2 d4 G2 G2 A2 B2 A4 G2 |
%W: A2
% voice 1 (1 lines, 28 notes)
B4 B2 B2 G2 B2 c4 A2 B4 B2 B2 G2 B2 A4 G2 B4 B2 B2 G2 B2 c4 A2 d4 G2 G2 A2 B2 A4 G2 |
%W: B1
% voice 1 (1 lines, 31 notes)
A4 e2 e2 d2 c2 B2 c2 d2 e4 A2 A2 B2 c2 B2 A2 G2 G4 g2 g2 f2 e2 d2 B2 d2 g4 G2 G2 A2 B2 A4 G2 |
%W: B2                                                                              Last time
% voice 1 (1 lines, 38 notes)
A4 e2 e2 d2 c2 B2 c2 d2 e4 A2 A2 B2 c2 B2 A2 G2 G4 g2 g2 f2 e2 d2 B2 d2 g4 G2 G2 A2 B2 A4 G2 ||g4 G2 G2 A2 B2 A6 G12 ||
